X:276
T:Sally in the Garden
R:Reel
O:USA
S:E.P.Band (Boiled in Lead ?)
S:Richard Robinson's web page/abc file
Z:Transcription:Richard Robinson(?), Chords:Mike Long
M:C|
L:1/8
K:C
"Am"A2A>G E>GA>B|"C"c2c2 "G"B4|"Am"A2A>B A>GE>^F|"G"G2G>A "Em"G>^FE2|\
"Am"A2A>G E>GA>B|
M:2/4
L:1/8
"C"c2 "G"d2|\
M:C|
L:1/8
"Am"(e2e)>f "(C)"e>dB>c|"G"d2d>e d>cB2|[1 "Am"A4A4:|[2 "Am"A4 A2A>B|]
|:"Am"c>BA>B c>BA>B|"C"c2"G"d2 "Am"e2A>B|\
"Am"c>BA>B "C"c2"G"d2|"Em"(~e4 e2)A>B|"Am"c>BA>B c>BA>B|
M:2/4
L:1/8
"C"c2 "G"d2|\
M:C|
L:1/8
"Am"(e2e)>f "(C)"e>dB>c|"G"d2d>e d>cB2 |[1 "Am"A4 A2A>B:|[2 "Am"A4 A4|]
